build/img/icons/build.svg

<svg width="38" height="34" viewBox="0 0 38 34" fill="none" xmlns="http://www.w3.org/2000/svg">
<path d="M4.0013 29.9854V7.81871C4.0012 7.47659 4.10639 7.14272 4.30258 6.86244C4.49878 6.58216 4.77647 6.36905 5.09797 6.25205L21.2163 0.392047C21.3422 0.346224 21.4773 0.331435 21.6101 0.348936C21.743 0.366437 21.8696 0.415711 21.9794 0.492581C22.0891 0.56945 22.1787 0.671648 22.2406 0.79051C22.3024 0.909372 22.3347 1.04139 22.3346 1.17538V9.43038L32.8613 12.9387C33.1933 13.0493 33.4821 13.2616 33.6867 13.5455C33.8913 13.8293 34.0014 14.1704 34.0013 14.5204V29.9854H37.3346V33.3187H0.667969V29.9854H4.0013ZM7.33463 29.9854H19.0013V4.74371L7.33463 8.98705V29.9854ZM30.668 29.9854V15.722L22.3346 12.9437V29.9854H30.668Z" fill="#5CC773"/>
</svg>

<svg width="38" height="34" fill="none" xmlns="http://www.w3.org/2000/svg">
    <path d="M4.001 29.985V7.82a1.667 1.667 0 0 1 1.097-1.567L21.216.392a.833.833 0 0 1 1.119.783V9.43L32.86 12.94a1.667 1.667 0 0 1 1.14 1.581v15.465h3.334v3.334H.668v-3.334h3.333zm3.334 0H19V4.744L7.335 8.987v20.998zm23.333 0V15.722l-8.333-2.778v17.041h8.333z" fill="#5CC773"/>
</svg>
